X:12402
T:Sweet Maid of Glendaruel
C:TBD
B: 
H:
O:Kevin Fraser
Z:Kevin Fraser
Q:1/4=90
K:HP
M:2/4
L:1/16
R:March
U: R = ///
U: r = //
U: V = !accent!
V:M gstem=up stem=down name="Melody" sname="Melody" 
V:H gstem=up stem=down name="Harmony" sname="Harmony"
V:C gstem=up stem=down name="C-Harmony" sname="C-Harmony"
V:S gstem=up stem=down dyn=up stafflines=1 clef=perc middle=G name="Snare" sname="Snare"" sname=snare
V:B gstem=up stem=down clef=none dyn=up name="Bass" sname="Bass"
V:T gstem=up stem=down clef=none dyn=up name="Tenor" sname="Tenor"
I:MIDI=program 110
%%MIDI gracedivider 4
%%score {M}
%%MIDI program 109 #bagpipes
%%MIDI vol 100
[V:M]|:e      |{g}A>B {GdG}c{Gdc}d | {gef}e>c {g}A{Gdc}d | {gcd}c{e}A {gef}ec | {gcd}c{e}B {GdG}Be |
[V:M]         |{g}A>B {GdG}c{Gdc}d | {gef}e>c {g}A{g}B/c/ | {Gdc}d>B {g}G{d}B | {gBd}B{e}A {GAG}A  :|
[V:M]|: {gf}g | {fg}fe {ag}a>f     | {gef}e>c {g}a{gf}g   | {fg}fe {ag}a>c    | {gcd}c{e}B {GdG}Be |
[V:M]         |{g}A>B {GdG}c{Gdc}d | {gef}e>c {g}A{g}B/c/ | {Gdc}d>B {g}G{d}B | {gBd}B{e}A {GAG}A  :|

